X:1
T:Anza Vista, 87.87 D
T:Anza Vista, 87.87 D
T:Charles Armand Miller, 1893
T:Public Domain Courtesy of the Cyber Hymnal™
C:Charles Armand Miller, 1893
Z:Public Domain
Z:Courtesy of the Cyber Hymnal™
%%score ( 1 2 ) 3
L:1/8
Q:1/4=107
M:4/4
K:F
V:1 treble 
V:2 treble 
V:3 bass 
V:1
 [Fd]2 | [Fc]3 [FA] [CF][FG][FA][^Gd] | [Ac]4 z2 [FA]2 | [FB]2 [FA]2 [FG]2 F2 | %4
 [FA]2 [EG]2 z2 [Ed]2 | [Fc]3 [FA] [CF][FG][FA][^Gd] | [Ac]4 z2 [FA]2 | [EG]2 [Ec]2 [Fd]2 [Ge]2 | %8
 [Fd]2 [Ec]2 z2 [GB]2 | [GB]3 [FA] [EG][^D^F][EG][EA] | F4 z2 [FA]2 | [^FA]3 [FA] [DB]2 [DA]2 | %12
 [DG]2 [Dd]2 z2 [Ed]2 | [Fc]3 [FA] [CF][FG][FA][^Gd] | [Ac]4 z2 [FA]2 | [^FA]2 [GB]2 [EG]2 [EA]2 | %16
 [EG]2 !fermata!F4 |] %17
V:2
 x2 | x8 | x8 | x6 F2 | x8 | x8 | x8 | x8 | x8 | x8 | F4 x4 | x8 | x8 | x8 | x8 | x8 | x2 F4 |] %17
V:3
 [F,B,]2 | [F,A,]3 [F,C] [F,A,][F,B,][F,C][F,=B,] | [F,C]4 z2 [F,C]2 | %3
 [F,D]2 [F,C]2 [D,=B,]2 [D,B,]2 | [C,C]2 [C,C]2 z2 [C,B,]2 | %5
 [F,A,]3 [F,C] [F,A,][F,B,][F,C][F,=B,] | [F,C]4 z2 [F,C]2 | [G,C]2 [G,C]2 [G,=B,]2 [G,B,]2 | %8
 [G,=B,]2 [C,C]2 z2 [C,C]2 | [C,C]3 [C,C] [C,B,][C,A,][C,B,][C,C] | [F,A,]4 z2 [F,C]2 | %11
 [D,D]3 [D,D] [^F,D]2 [F,C]2 | [G,B,]2 [G,B,]2 z2 [C,B,]2 | %13
 [F,A,]3 [F,C] [F,A,][F,B,][F,C][F,=B,] | [F,C]4 z2 [F,C]2 | [D,D]2 [G,,D]2 [C,B,]2 [C,C]2 | %16
 [C,B,]2 !fermata![F,A,]4 |] %17

